SVG_Azure_Grouped/Application/Event Hub Schema Registry.svg

<?xml version="1.0" encoding="UTF-8" standalone="no"?>
<!-- Generated by Microsoft Visio, SVG Export Event Hub Schema Registry.svg Page-1 -->

<svg
   xmlns:dc="http://purl.org/dc/elements/1.1/"
   xmlns:cc="http://creativecommons.org/ns#"
   xmlns:rdf="http://www.w3.org/1999/02/22-rdf-syntax-ns#"
   xmlns:svg="http://www.w3.org/2000/svg"
   xmlns="http://www.w3.org/2000/svg"
   xmlns:xlink="http://www.w3.org/1999/xlink"
   xmlns:sodipodi="http://sodipodi.sourceforge.net/DTD/sodipodi-0.dtd"
   xmlns:inkscape="http://www.inkscape.org/namespaces/inkscape"
   width="0.7874983in"
   height="0.70870453in"
   viewBox="0 0 56.699842 51.02671"
   xml:space="preserve"
   class="st5"
   version="1.1"
   id="svg102"
   sodipodi:docname="Event Hub Schema Registry.svg"
   style="font-size:12px;overflow:visible;color-interpolation-filters:sRGB;fill:none;fill-rule:evenodd;stroke-linecap:square;stroke-miterlimit:3"
   inkscape:version="0.92.5 (2060ec1f9f, 2020-04-08)"><metadata
   id="metadata106"><rdf:RDF><cc:Work
       rdf:about=""><dc:format>image/svg+xml</dc:format><dc:type
         rdf:resource="http://purl.org/dc/dcmitype/StillImage" /></cc:Work></rdf:RDF></metadata><sodipodi:namedview
   pagecolor="#ffffff"
   bordercolor="#666666"
   borderopacity="1"
   objecttolerance="10"
   gridtolerance="10"
   guidetolerance="10"
   inkscape:pageopacity="0"
   inkscape:pageshadow="2"
   inkscape:window-width="640"
   inkscape:window-height="480"
   id="namedview104"
   showgrid="false"
   inkscape:zoom="1.4869072"
   inkscape:cx="37.797234"
   inkscape:cy="34.006432"
   inkscape:window-x="0"
   inkscape:window-y="0"
   inkscape:window-maximized="0"
   inkscape:current-layer="svg102" />
	<style
   type="text/css"
   id="style2">
	<![CDATA[
		.st1 {fill:#949494;stroke:none;stroke-linecap:butt;stroke-width:34}
		.st2 {fill:url(#grad0-8);stroke:none;stroke-linecap:butt;stroke-width:34}
		.st3 {fill:#999999;stroke:none;stroke-linecap:butt;stroke-width:34}
		.st4 {fill:#999999;fill-opacity:0.5;stroke:none;stroke-linecap:butt;stroke-width:34}
		.st5 {fill:none;fill-rule:evenodd;font-size:12px;overflow:visible;stroke-linecap:square;stroke-miterlimit:3}
	]]>
	</style>

	<defs
   id="Patterns_And_Gradients">
		<linearGradient
   id="grad0-8"
   x1="0"
   y1="0"
   x2="1"
   y2="0"
   gradientTransform="rotate(-90,0.5,0.5)">
			<stop
   offset="0"
   stop-color="#76bc2d"
   stop-opacity="1"
   id="stop4" />
			<stop
   offset="0.74"
   stop-color="#86d633"
   stop-opacity="1"
   id="stop6" />
		</linearGradient>
	<linearGradient
   inkscape:collect="always"
   xlink:href="#grad0-8"
   id="linearGradient4616"
   gradientTransform="scale(1.6071493,0.62221974)"
   x1="-0.00046130373"
   y1="177.78185"
   x2="13.533741"
   y2="177.78185"
   gradientUnits="userSpaceOnUse" /><linearGradient
   inkscape:collect="always"
   xlink:href="#grad0-8"
   id="linearGradient4618"
   gradientTransform="scale(1.2510937,0.79930067)"
   x1="-0.00049338579"
   y1="138.3952"
   x2="10.535276"
   y2="138.3952"
   gradientUnits="userSpaceOnUse" /><linearGradient
   inkscape:collect="always"
   xlink:href="#grad0-8"
   id="linearGradient4620"
   gradientTransform="scale(1.2496691,0.80021182)"
   x1="-0.00049394822"
   y1="138.23762"
   x2="10.523279"
   y2="138.23762"
   gradientUnits="userSpaceOnUse" /></defs>
	<g
   id="g100"
   transform="translate(-34.000096,-33.9976)">
		<title
   id="title10">Page-1</title>
		<g
   id="group14017-1"
   transform="translate(34.003,-34.0157)">
			<title
   id="title12">Event Hub Schema Registry.14017</title>
			<g
   id="group14018-2">
				<title
   id="title14">Sheet.14018</title>
				<g
   id="shape14019-3"
   transform="translate(16.4279,-18.419)">
					<title
   id="title16">Sheet.14019</title>
					<path
   d="m 3.86,119.04 8.06,-14 8.02,14 h 3.85 L 13.36,100.83 a 1.66646,1.68395 -180 0 0 -2.89,0 L 0,119.02 Z"
   class="st1"
   id="path18"
   inkscape:connector-curvature="0"
   style="fill:#949494;stroke:none;stroke-width:34;stroke-linecap:butt" />
				</g>
				<g
   id="shape14020-5"
   transform="translate(17.4678,-30.1595)">
					<title
   id="title21">Sheet.14020</title>
					<path
   d="m 21.75,118.13 a 0.866558,0.875653 0 0 1 -0.7999,0.90933 L 0.9,119.04 A 0.869891,0.879021 0 0 1 1.12e-4,118.23171 L 0,111.53 a 0.866558,0.875653 0 0 1 0.7999,-0.90933 L 20.85,110.62 a 0.869891,0.879021 0 0 1 0.899888,0.8083 z"
   class="st2"
   id="path23"
   inkscape:connector-curvature="0"
   style="fill:url(#linearGradient4616);stroke:none;stroke-width:34;stroke-linecap:butt" />
				</g>
				<g
   id="shape14021-9"
   transform="translate(31.3094,-11.9055)">
					<title
   id="title26">Sheet.14021</title>
					<path
   d="m 13.18,118.13 a 0.869891,0.879021 0 0 1 -0.7999,0.90933 L 0.9,119.04 A 0.869891,0.879021 0 0 1 1.12e-4,118.23171 L 0,111.53 a 0.869891,0.879021 0 0 1 0.7999,-0.90933 L 12.28,110.62 a 0.869891,0.879021 0 0 1 0.899888,0.8083 z"
   class="st2"
   id="path28"
   inkscape:connector-curvature="0"
   style="fill:url(#linearGradient4618);stroke:none;stroke-width:34;stroke-linecap:butt" />
				</g>
				<g
   id="shape14022-12"
   transform="translate(12.1951,-11.9055)">
					<title
   id="title31">Sheet.14022</title>
					<path
   d="m 13.15,118.13 a 0.869891,0.879021 0 0 1 -0.7999,0.90933 L 0.9,119.04 A 0.869891,0.879021 0 0 1 1.12e-4,118.23171 L 0,111.53 a 0.869891,0.879021 0 0 1 0.7999,-0.90933 L 12.25,110.62 a 0.869891,0.879021 0 0 1 0.899888,0.8083 z"
   class="st2"
   id="path33"
   inkscape:connector-curvature="0"
   style="fill:url(#linearGradient4620);stroke:none;stroke-width:34;stroke-linecap:butt" />
				</g>
				<g
   id="group14023-15"
   transform="translate(0,-37.9225)">
					<title
   id="title36">Sheet.14023</title>
					<g
   id="shape14024-16">
						<title
   id="title38">Sheet.14024</title>
						<path
   d="m 1.9,105.94 h 4.3 v 12.12 a 0.966546,0.97669 0 0 1 -0.966546,0.97669 L 0.97,119.04 A 0.966546,0.97669 0 0 1 0.003454,118.06331 L 0,107.96 a 1.89643,1.91633 0 0 1 1.8,-2.02 z"
   class="st3"
   id="path40"
   inkscape:connector-curvature="0"
   style="fill:#999999;stroke:none;stroke-width:34;stroke-linecap:butt" />
					</g>
					<g
   id="shape14025-18">
						<title
   id="title43">Sheet.14025</title>
						<path
   d="m 1.9,105.94 h 4.3 v 12.12 a 0.966546,0.97669 0 0 1 -0.966546,0.97669 L 0.97,119.04 A 0.966546,0.97669 0 0 1 0.003454,118.06331 L 0,107.96 a 1.89643,1.91633 0 0 1 1.8,-2.02 z"
   class="st4"
   id="path45"
   inkscape:connector-curvature="0"
   style="fill:#999999;fill-opacity:0.5;stroke:none;stroke-width:34;stroke-linecap:butt" />
					</g>
				</g>
				<g
   id="group14026-20"
   transform="translate(50.427,-38.0067)">
					<title
   id="title49">Sheet.14026</title>
					<g
   id="shape14027-21">
						<title
   id="title51">Sheet.14027</title>
						<path
   d="M 0.03,106.02 H 4.3 a 1.89976,1.9197 0 0 1 1.9,1.92 v 10.12 a 0.966546,0.97669 0 0 1 -0.966546,0.97669 L 0.97,119.04 A 0.966546,0.97669 0 0 1 0.003454,118.06331 L 0,106.02 Z"
   class="st3"
   id="path53"
   inkscape:connector-curvature="0"
   style="fill:#999999;stroke:none;stroke-width:34;stroke-linecap:butt" />
					</g>
					<g
   id="shape14028-23">
						<title
   id="title56">Sheet.14028</title>
						<path
   d="M 0.03,106.02 H 4.3 a 1.89976,1.9197 0 0 1 1.9,1.92 v 10.12 a 0.966546,0.97669 0 0 1 -0.966546,0.97669 L 0.97,119.04 A 0.966546,0.97669 0 0 1 0.003454,118.06331 L 0,106.02 Z"
   class="st4"
   id="path58"
   inkscape:connector-curvature="0"
   style="fill:#999999;fill-opacity:0.5;stroke:none;stroke-width:34;stroke-linecap:butt" />
					</g>
				</g>
				<g
   id="shape14029-25"
   transform="translate(0.0133317,-44.8435)">
					<title
   id="title62">Sheet.14029</title>
					<path
   d="m 56.66,114.8 v 4.24 H 0 v -4.24 a 1.89976,1.9197 0 0 1 1.9,-1.92 h 52.86 a 1.89976,1.9197 0 0 1 1.9,1.92 z"
   class="st1"
   id="path64"
   inkscape:connector-curvature="0"
   style="fill:#949494;stroke:none;stroke-width:34;stroke-linecap:butt" />
				</g>
				<g
   id="group14030-27"
   transform="translate(0.0133317,-0.033679)">
					<title
   id="title67">Sheet.14030</title>
					<g
   id="shape14031-28">
						<title
   id="title69">Sheet.14031</title>
						<path
   d="m 0.95,105.94 h 4.3 a 0.966546,0.97669 0 0 1 0.966546,0.97669 L 6.22,119.04 H 1.89 A 1.89976,1.9197 0 0 1 0,117.14 v -10.11 a 0.963213,0.973322 0 0 1 0.859893,-1.07099 0.573262,0.579278 0 0 1 0.0933217,-0.0236 z"
   class="st3"
   id="path71"
   inkscape:connector-curvature="0"
   style="fill:#999999;stroke:none;stroke-width:34;stroke-linecap:butt" />
					</g>
					<g
   id="shape14032-30">
						<title
   id="title74">Sheet.14032</title>
						<path
   d="m 0.95,105.94 h 4.3 a 0.966546,0.97669 0 0 1 0.966546,0.97669 L 6.22,119.04 H 1.89 A 1.89976,1.9197 0 0 1 0,117.14 v -10.11 a 0.963213,0.973322 0 0 1 0.859893,-1.07099 0.573262,0.579278 0 0 1 0.0933217,-0.0236 z"
   class="st4"
   id="path76"
   inkscape:connector-curvature="0"
   style="fill:#999999;fill-opacity:0.5;stroke:none;stroke-width:34;stroke-linecap:butt" />
					</g>
				</g>
				<g
   id="group14033-32"
   transform="translate(50.4604,-0.134716)">
					<title
   id="title80">Sheet.14033</title>
					<g
   id="shape14034-33">
						<title
   id="title82">Sheet.14034</title>
						<path
   d="m 0.93,106.04 h 4.34 a 0.966546,0.97669 0 0 1 0.966546,0.97669 L 6.23,117.12 a 1.89976,1.9197 0 0 1 -1.9,1.92 H 0 v -12.13 a 0.963213,0.973322 0 0 1 0.933217,-0.87565 z"
   class="st3"
   id="path84"
   inkscape:connector-curvature="0"
   style="fill:#999999;stroke:none;stroke-width:34;stroke-linecap:butt" />
					</g>
					<g
   id="shape14035-35">
						<title
   id="title87">Sheet.14035</title>
						<path
   d="m 0.93,106.04 h 4.34 a 0.966546,0.97669 0 0 1 0.966546,0.97669 L 6.23,117.12 a 1.89976,1.9197 0 0 1 -1.9,1.92 H 0 v -12.13 a 0.963213,0.973322 0 0 1 0.933217,-0.87565 z"
   class="st4"
   id="path89"
   inkscape:connector-curvature="0"
   style="fill:#999999;fill-opacity:0.5;stroke:none;stroke-width:34;stroke-linecap:butt" />
					</g>
				</g>
				<g
   id="shape14036-37"
   transform="translate(0.0133317)">
					<title
   id="title93">Sheet.14036</title>
					<path
   d="m 0,117.12 v -4.24 h 56.66 v 4.24 a 1.89976,1.9197 0 0 1 -1.9,1.92 H 1.89 A 1.89976,1.9197 0 0 1 0,117.12 Z"
   class="st1"
   id="path95"
   inkscape:connector-curvature="0"
   style="fill:#949494;stroke:none;stroke-width:34;stroke-linecap:butt" />
				</g>
			</g>
		</g>
	</g>
</svg>

<?xml version="1.0" encoding="UTF-8" standalone="no"?>
<!DOCTYPE svg PUBLIC "-//W3C//DTD SVG 1.1//EN" "http://www.w3.org/Graphics/SVG/1.1/DTD/svg11.dtd">
<!-- Generated by Microsoft Visio, SVG Export Event Hub Schema Registry.svg Page-1 -->
<svg xmlns="http://www.w3.org/2000/svg" xmlns:xlink="http://www.w3.org/1999/xlink" xmlns:ev="http://www.w3.org/2001/xml-events"
		width="1.73189in" height="1.65332in" viewBox="0 0 124.696 119.039" xml:space="preserve" color-interpolation-filters="sRGB"
		class="st5">
	<style type="text/css">
	<![CDATA[
		.st1 {fill:#949494;stroke:none;stroke-linecap:butt;stroke-width:34}
		.st2 {fill:url(#grad0-8);stroke:none;stroke-linecap:butt;stroke-width:34}
		.st3 {fill:#999999;stroke:none;stroke-linecap:butt;stroke-width:34}
		.st4 {fill:#999999;fill-opacity:0.5;stroke:none;stroke-linecap:butt;stroke-width:34}
		.st5 {fill:none;fill-rule:evenodd;font-size:12px;overflow:visible;stroke-linecap:square;stroke-miterlimit:3}
	]]>
	</style>

	<defs id="Patterns_And_Gradients">
		<linearGradient id="grad0-8" x1="0" y1="0" x2="1" y2="0" gradientTransform="rotate(-90 0.5 0.5)">
			<stop offset="0" stop-color="#76bc2d" stop-opacity="1"/>
			<stop offset="0.74" stop-color="#86d633" stop-opacity="1"/>
		</linearGradient>
	</defs>
	<g>
		<title>Page-1</title>
		<g id="group13670-1" transform="translate(34.003,-34.0157)">
			<title>Event Hub Schema Registry.13670</title>
			<g id="group13671-2">
				<title>Sheet.13671</title>
				<g id="shape13672-3" transform="translate(16.4279,-18.419)">
					<title>Sheet.13672</title>
					<path d="M3.86 119.04 L11.92 105.04 L19.94 119.04 L23.79 119.04 L13.36 100.83 A1.66646 1.68395 -180 0 0 10.47
								 100.83 L0 119.02 L3.86 119.04 Z" class="st1"/>
				</g>
				<g id="shape13673-5" transform="translate(17.4678,-30.1595)">
					<title>Sheet.13673</title>
					<path d="M21.75 118.13 a0.866558 0.875653 0 0 1 -0.7999 0.909332 L0.9 119.04 a0.869891 0.879021 0 0 1 -0.899888
								 -0.808295 L0 111.53 a0.866558 0.875653 0 0 1 0.7999 -0.909332 L20.85 110.62 a0.869891 0.879021 0
								 0 1 0.899888 0.808295 L21.75 118.13 Z" class="st2"/>
				</g>
				<g id="shape13674-9" transform="translate(31.3094,-11.9055)">
					<title>Sheet.13674</title>
					<path d="M13.18 118.13 a0.869891 0.879021 0 0 1 -0.7999 0.909332 L0.9 119.04 a0.869891 0.879021 0 0 1 -0.899888
								 -0.808295 L0 111.53 a0.869891 0.879021 0 0 1 0.7999 -0.909332 L12.28 110.62 a0.869891 0.879021 0
								 0 1 0.899888 0.808295 L13.18 118.13 Z" class="st2"/>
				</g>
				<g id="shape13675-12" transform="translate(12.1951,-11.9055)">
					<title>Sheet.13675</title>
					<path d="M13.15 118.13 a0.869891 0.879021 0 0 1 -0.7999 0.909332 L0.9 119.04 a0.869891 0.879021 0 0 1 -0.899888
								 -0.808295 L0 111.53 a0.869891 0.879021 0 0 1 0.7999 -0.909332 L12.25 110.62 a0.869891 0.879021 0
								 0 1 0.899888 0.808295 L13.15 118.13 Z" class="st2"/>
				</g>
				<g id="group13676-15" transform="translate(-1.13909E-13,-37.9225)">
					<title>Sheet.13676</title>
					<g id="shape13677-16">
						<title>Sheet.13677</title>
						<path d="M1.9 105.94 L6.2 105.94 L6.2 118.06 a0.966546 0.97669 0 0 1 -0.966546 0.97669 L0.97 119.04 a0.966546
									 0.97669 0 0 1 -0.966546 -0.97669 L0 107.96 A1.89643 1.91633 0 0 1 1.8 105.94 L1.9 105.94 Z"
								class="st3"/>
					</g>
					<g id="shape13678-18">
						<title>Sheet.13678</title>
						<path d="M1.9 105.94 L6.2 105.94 L6.2 118.06 a0.966546 0.97669 0 0 1 -0.966546 0.97669 L0.97 119.04 a0.966546
									 0.97669 0 0 1 -0.966546 -0.97669 L0 107.96 A1.89643 1.91633 0 0 1 1.8 105.94 L1.9 105.94 Z"
								class="st4"/>
					</g>
				</g>
				<g id="group13679-20" transform="translate(50.427,-38.0067)">
					<title>Sheet.13679</title>
					<g id="shape13680-21">
						<title>Sheet.13680</title>
						<path d="M0.03 106.02 L4.3 106.02 A1.89976 1.9197 0 0 1 6.2 107.94 L6.2 118.06 a0.966546 0.97669 0 0 1 -0.966546
									 0.97669 L0.97 119.04 a0.966546 0.97669 0 0 1 -0.966546 -0.97669 L0 106.02 L0.03 106.02 Z"
								class="st3"/>
					</g>
					<g id="shape13681-23">
						<title>Sheet.13681</title>
						<path d="M0.03 106.02 L4.3 106.02 A1.89976 1.9197 0 0 1 6.2 107.94 L6.2 118.06 a0.966546 0.97669 0 0 1 -0.966546
									 0.97669 L0.97 119.04 a0.966546 0.97669 0 0 1 -0.966546 -0.97669 L0 106.02 L0.03 106.02 Z"
								class="st4"/>
					</g>
				</g>
				<g id="shape13682-25" transform="translate(0.0133317,-44.8435)">
					<title>Sheet.13682</title>
					<path d="M56.66 114.8 L56.66 119.04 L0 119.04 L0 114.8 A1.89976 1.9197 0 0 1 1.9 112.88 L54.76 112.88 A1.89976
								 1.9197 0 0 1 56.66 114.8 Z" class="st1"/>
				</g>
				<g id="group13683-27" transform="translate(0.0133317,-0.033679)">
					<title>Sheet.13683</title>
					<g id="shape13684-28">
						<title>Sheet.13684</title>
						<path d="M0.95 105.94 L5.25 105.94 a0.966546 0.97669 0 0 1 0.966546 0.97669 L6.22 119.04 L1.89 119.04 A1.89976
									 1.9197 0 0 1 -0 117.14 L0 107.03 a0.963213 0.973322 0 0 1 0.859893 -1.07099 a0.573262 0.579278
									 0 0 1 0.0933217 -0.0235753 Z" class="st3"/>
					</g>
					<g id="shape13685-30">
						<title>Sheet.13685</title>
						<path d="M0.95 105.94 L5.25 105.94 a0.966546 0.97669 0 0 1 0.966546 0.97669 L6.22 119.04 L1.89 119.04 A1.89976
									 1.9197 0 0 1 -0 117.14 L0 107.03 a0.963213 0.973322 0 0 1 0.859893 -1.07099 a0.573262 0.579278
									 0 0 1 0.0933217 -0.0235753 Z" class="st4"/>
					</g>
				</g>
				<g id="group13686-32" transform="translate(50.4604,-0.134716)">
					<title>Sheet.13686</title>
					<g id="shape13687-33">
						<title>Sheet.13687</title>
						<path d="M0.93 106.04 L5.27 106.04 a0.966546 0.97669 0 0 1 0.966546 0.97669 L6.23 117.12 A1.89976 1.9197
									 0 0 1 4.33 119.04 L0 119.04 L0 106.91 a0.963213 0.973322 0 0 1 0.933217 -0.875653 Z"
								class="st3"/>
					</g>
					<g id="shape13688-35">
						<title>Sheet.13688</title>
						<path d="M0.93 106.04 L5.27 106.04 a0.966546 0.97669 0 0 1 0.966546 0.97669 L6.23 117.12 A1.89976 1.9197
									 0 0 1 4.33 119.04 L0 119.04 L0 106.91 a0.963213 0.973322 0 0 1 0.933217 -0.875653 Z"
								class="st4"/>
					</g>
				</g>
				<g id="shape13689-37" transform="translate(0.0133317,0)">
					<title>Sheet.13689</title>
					<path d="M0 117.12 L0 112.88 L56.66 112.88 L56.66 117.12 A1.89976 1.9197 0 0 1 54.76 119.04 L1.89 119.04 A1.89976
								 1.9197 0 0 1 0 117.12 Z" class="st1"/>
				</g>
			</g>
		</g>
	</g>
</svg>
